X: 1
T: Paddy Fahy's
M: 4/4
L: 1/8
R: reel
K: Gmaj
(3Bcd Bd c2dc|BGG=F DEFD|GBdB c2dc|BGAF ~G3A|
BDGB c2dc|BGG=F DEFD|GBdB c2dc|BGAF ~G3z:|
|:dg~g2 dcBc|dgag fdcB|c=f~f2 cfA_B|c=fag fcBc|
dg~g2 dcBc|dgag fdef|gbag fd (3efg|fdcA ~G3z:|
